X: 38734
T: Strictly Sambuca
R: reel
M: 4/4
K: Gmajor
|:EB B2 eB B2|BGAB GEED|EB B2 eBBA|Bgfg fd (3Bcd|
B3c dB B2|BGAB AGFD|cDEG ABde-|egdB AGFG:|
|:E3D EFGA-|AGAB AGFB|AD D2 DEFG|AGAB gfed|
eB B2 dA A2|BG G2 dGBA|GDEG ABde-|egdB AGFG:|

